!!!OTL: 548. Treue Liebe.
!!!ARE: Europa, Mitteleuropa, Deutschland, Hildburghausen
!!!SCT: E0548
!!!TXL: @@DE
!!!YEM: Copyright 1995, estate of Helmut Schaffrath.
**kern	**text
*ICvox	*
*M3/4	*
*k[b-]	*
*F:	*
=1	=1
!LO:TX:a:t=Sehr mäßig.	!
!LO:TX:a:t=Alte Mel. vor 1820.	!
{4cc	Ach
8ccL	wie
8ddJ	.
8ccL	iſts
8b-J	.
=2	=2
4.b-/	mög-
8a	-lich
4a}	dann,
=3	=3
{4a	daß
8aL	ich
8b-J	.
8aL	dich
8gJ	.
=4	=4
4.g	laſ-
8f	-ſen
4f}	kann,
=5	=5
{4g	hab
4g	dich
4g	von
=6	=6
4.a	Her-
8b-	-ʒen
4cc}	lieb,
=7	=7
{4cc	das
8ddL	glau-
8ccJ	.
8b-L	-be
8aJ	.
=8	=8
(4aqq	.
2g)	mir!
4r}	.
=9	=9
{4cc	Du
4cc	haſt
4cc	das
=10	=10
4.dd	Her-
8ee	-ʒe
8ffL	mein
8ddJ}	.
=11	=11
{4cc	ſo
8ccL	ſehr
8ddJ	.
8ccL	ge-
8b-J	.
=12	=12
8aL	-nom-
8gJ	.
8aL	-men
8b-J	.
4a}	ein,
=13	=13
{4f	daß
4a	ich
4cc	kein'
=14	=14
8ccL	An-
8b-J	.
8gL	-dern
8b-J	.
4a}	lieb,
=15	=15
{4ccL	lie-
8ddJ	-be
8b-L	.
8gJ	ſo
8e	.
=16	=16
(4gq	.
2f)	ſehr.
4r}	.
==	==
!!!AGN: Liebes - Lied, Treue
!!!ONB: ESAC (Essen Associative Code) Database: ERK1
!!!AMT: simple triple
!!!AIN: vox
!!!EED: Helmut Schaffrath
!!!EEV: 1.0
!!!GTL: Liebeslieder [Neuere (aus dem 18. bis 19. Jahrh.) - Liebeslust]
!!!URL-scan: https://rosdok.uni-rostock.de/mcrviewer/recordIdentifier/rosdok_ppn745177662/iview2/phys_0376.iview2?x=-128.77276441889308&y=624.9045789460652&scale=0.5870222003877485&rotation=0&layout=singlePageLayout
!!!ENC: Anna Maria Matuszewska
!!!EEV: 2024/10/12
*-	*-
